X: 3551
T: Big Mon
R: reel
M: 4/4
K: Amajor
|:"A" AGAB cBAF|"G" =GFGB AGFE|"A" AGAB cdef|"E" =gfgf "A" edcB|
"A" A2 AB cBAF|"G" =GFGB AGFE|"A" e2 e2 e2 ef|"E" edcB "A" A4:|
|:"A" eeef e2 ee|"A" efec BcAF|"A" ECA,B, CEFA|"E" cBAc B2 A2|
"A" eeef e2 ee|"A" efeg fefg|"A" afgf ef=gf|"E" ecBc "A" A4:|

